src/ios-toggle.svg

<?xml version="1.0" encoding="utf-8"?>
<!-- Generated by IcoMoon.io -->
<!DOCTYPE svg PUBLIC "-//W3C//DTD SVG 1.1//EN" "http://www.w3.org/Graphics/SVG/1.1/DTD/svg11.dtd">
<svg version="1.1" xmlns="http://www.w3.org/2000/svg" xmlns:xlink="http://www.w3.org/1999/xlink" width="512" height="512" viewBox="0 0 512 512">
<path fill="#000000" d="M128 320c-26.467 0-48 21.533-48 48s21.533 48 48 48 48-21.533 48-48-21.533-48-48-48z"></path>
<path fill="#000000" d="M383.5 272h-255c-53.295 0-96.5 43.205-96.5 96.5s43.205 95.5 96.5 95.5h255c53.295 0 96.5-42.205 96.5-95.5s-43.205-96.5-96.5-96.5zM128 432c-35.346 0-64-28.653-64-64s28.654-64 64-64 64 28.654 64 64c0 35.347-28.654 64-64 64z"></path>
<path fill="#000000" d="M384 192c26.467 0 48-21.533 48-48s-21.533-48-48-48-48 21.533-48 48 21.533 48 48 48z"></path>
<path fill="#000000" d="M128.5 240h255c53.295 0 96.5-42.205 96.5-95.5s-43.205-96.5-96.5-96.5h-255c-53.295 0-96.5 43.205-96.5 96.5s43.205 95.5 96.5 95.5zM384 80c35.346 0 64 28.654 64 64 0 35.347-28.654 64-64 64s-64-28.653-64-64c0-35.346 28.654-64 64-64z"></path>
</svg>

<?xml version="1.0" encoding="utf-8"?>
<!-- Generator: Adobe Illustrator 16.2.1, SVG Export Plug-In . SVG Version: 6.00 Build 0)  -->
<!DOCTYPE svg PUBLIC "-//W3C//DTD SVG 1.1//EN" "http://www.w3.org/Graphics/SVG/1.1/DTD/svg11.dtd">
<svg version="1.1" id="Layer_1" xmlns="http://www.w3.org/2000/svg" xmlns:xlink="http://www.w3.org/1999/xlink" x="0px" y="0px"
	 width="512px" height="512px" viewBox="0 0 512 512" enable-background="new 0 0 512 512" xml:space="preserve">
<g>
	<path d="M128,320c-26.467,0-48,21.533-48,48s21.533,48,48,48s48-21.533,48-48S154.467,320,128,320z"/>
	<path d="M383.5,272h-255C75.205,272,32,315.205,32,368.5S75.205,464,128.5,464h255c53.295,0,96.5-42.205,96.5-95.5
		S436.795,272,383.5,272z M128,432c-35.346,0-64-28.653-64-64c0-35.346,28.654-64,64-64s64,28.654,64,64
		C192,403.347,163.346,432,128,432z"/>
	<path d="M384,192c26.467,0,48-21.533,48-48s-21.533-48-48-48s-48,21.533-48,48S357.533,192,384,192z"/>
	<path d="M128.5,240h255c53.295,0,96.5-42.205,96.5-95.5S436.795,48,383.5,48h-255C75.205,48,32,91.205,32,144.5
		S75.205,240,128.5,240z M384,80c35.346,0,64,28.654,64,64c0,35.347-28.654,64-64,64s-64-28.653-64-64
		C320,108.654,348.654,80,384,80z"/>
</g>
</svg>
